!!!**kern example file with ten bars
!!!see http://dactyl.som.ohio-state.edu/Humdrum/guide02.html
**kern
*staff1
*clefG2
*k[]
*M4/4
=1
8c
8c
8c
8c
8c
8c
8c
8c
=2
8d
8c
8c
8c
8c
8c
8c
8c
=3
8e
8c
8c
8c
8c
8c
8c
8c
=4
8f
8c
8c
8c
8c
8c
8c
8c
=5
8g
8c
8c
8c
8c
8c
8c
8c
=6
8b
8c
8c
8c
8c
8c
8c
8c
=7
8cc
8c
8c
8c
8c
8c
8c
8c
=8
8dd
8c
8c
8c
8c
8c
8c
8c
=9
8ee
8c
8c
8c
8c
8c
8c
8c
=10
8ff
8c
8c
8c
8c
8c
8c
8c
=2








*-
